images/3177.svg

<?xml version="1.0" encoding="UTF-8"?>
<svg xmlns="http://www.w3.org/2000/svg" xmlns:xlink="http://www.w3.org/1999/xlink" width="300pt" height="300pt" viewBox="0 0 300 300" version="1.1">
<defs>
<g>
<symbol overflow="visible" id="glyph0-0">
<path style="stroke:none;" d="M 0.75 2.65625 L 0.75 -10.578125 L 8.25 -10.578125 L 8.25 2.65625 Z M 1.59375 1.8125 L 7.40625 1.8125 L 7.40625 -9.734375 L 1.59375 -9.734375 Z M 1.59375 1.8125 "/>
</symbol>
<symbol overflow="visible" id="glyph0-1">
<path style="stroke:none;" d="M 8.03125 -10.578125 L 8.03125 -9.140625 C 7.46875 -9.398438 6.9375 -9.597656 6.4375 -9.734375 C 5.9375 -9.867188 5.457031 -9.9375 5 -9.9375 C 4.1875 -9.9375 3.5625 -9.78125 3.125 -9.46875 C 2.6875 -9.15625 2.46875 -8.707031 2.46875 -8.125 C 2.46875 -7.644531 2.613281 -7.28125 2.90625 -7.03125 C 3.195312 -6.789062 3.75 -6.59375 4.5625 -6.4375 L 5.453125 -6.25 C 6.554688 -6.039062 7.367188 -5.671875 7.890625 -5.140625 C 8.421875 -4.609375 8.6875 -3.898438 8.6875 -3.015625 C 8.6875 -1.953125 8.332031 -1.144531 7.625 -0.59375 C 6.914062 -0.0507812 5.875 0.21875 4.5 0.21875 C 3.976562 0.21875 3.425781 0.15625 2.84375 0.03125 C 2.257812 -0.0820312 1.65625 -0.253906 1.03125 -0.484375 L 1.03125 -2 C 1.632812 -1.664062 2.222656 -1.410156 2.796875 -1.234375 C 3.367188 -1.066406 3.9375 -0.984375 4.5 -0.984375 C 5.34375 -0.984375 5.992188 -1.148438 6.453125 -1.484375 C 6.910156 -1.816406 7.140625 -2.289062 7.140625 -2.90625 C 7.140625 -3.445312 6.972656 -3.867188 6.640625 -4.171875 C 6.316406 -4.472656 5.78125 -4.695312 5.03125 -4.84375 L 4.125 -5.03125 C 3.019531 -5.25 2.21875 -5.59375 1.71875 -6.0625 C 1.226562 -6.53125 0.984375 -7.179688 0.984375 -8.015625 C 0.984375 -8.984375 1.320312 -9.742188 2 -10.296875 C 2.6875 -10.859375 3.628906 -11.140625 4.828125 -11.140625 C 5.335938 -11.140625 5.859375 -11.09375 6.390625 -11 C 6.921875 -10.90625 7.46875 -10.765625 8.03125 -10.578125 Z M 8.03125 -10.578125 "/>
</symbol>
<symbol overflow="visible" id="glyph0-2">
<path style="stroke:none;" d="M 5.90625 -9.9375 C 4.832031 -9.9375 3.976562 -9.535156 3.34375 -8.734375 C 2.71875 -7.929688 2.40625 -6.835938 2.40625 -5.453125 C 2.40625 -4.078125 2.71875 -2.988281 3.34375 -2.1875 C 3.976562 -1.382812 4.832031 -0.984375 5.90625 -0.984375 C 6.976562 -0.984375 7.828125 -1.382812 8.453125 -2.1875 C 9.085938 -2.988281 9.40625 -4.078125 9.40625 -5.453125 C 9.40625 -6.835938 9.085938 -7.929688 8.453125 -8.734375 C 7.828125 -9.535156 6.976562 -9.9375 5.90625 -9.9375 Z M 5.90625 -11.140625 C 7.4375 -11.140625 8.660156 -10.625 9.578125 -9.59375 C 10.503906 -8.5625 10.96875 -7.179688 10.96875 -5.453125 C 10.96875 -3.734375 10.503906 -2.359375 9.578125 -1.328125 C 8.660156 -0.296875 7.4375 0.21875 5.90625 0.21875 C 4.375 0.21875 3.144531 -0.289062 2.21875 -1.3125 C 1.300781 -2.34375 0.84375 -3.722656 0.84375 -5.453125 C 0.84375 -7.179688 1.300781 -8.5625 2.21875 -9.59375 C 3.144531 -10.625 4.375 -11.140625 5.90625 -11.140625 Z M 5.90625 -11.140625 "/>
</symbol>
<symbol overflow="visible" id="glyph0-3">
<path style="stroke:none;" d="M 2.953125 -5.21875 L 2.953125 -1.21875 L 5.328125 -1.21875 C 6.117188 -1.21875 6.707031 -1.378906 7.09375 -1.703125 C 7.476562 -2.035156 7.671875 -2.539062 7.671875 -3.21875 C 7.671875 -3.90625 7.476562 -4.410156 7.09375 -4.734375 C 6.707031 -5.054688 6.117188 -5.21875 5.328125 -5.21875 Z M 2.953125 -9.71875 L 2.953125 -6.421875 L 5.140625 -6.421875 C 5.859375 -6.421875 6.394531 -6.554688 6.75 -6.828125 C 7.101562 -7.097656 7.28125 -7.515625 7.28125 -8.078125 C 7.28125 -8.628906 7.101562 -9.039062 6.75 -9.3125 C 6.394531 -9.582031 5.859375 -9.71875 5.140625 -9.71875 Z M 1.46875 -10.9375 L 5.25 -10.9375 C 6.375 -10.9375 7.242188 -10.703125 7.859375 -10.234375 C 8.472656 -9.765625 8.78125 -9.097656 8.78125 -8.234375 C 8.78125 -7.566406 8.625 -7.035156 8.3125 -6.640625 C 8 -6.242188 7.535156 -5.992188 6.921875 -5.890625 C 7.648438 -5.734375 8.21875 -5.40625 8.625 -4.90625 C 9.03125 -4.414062 9.234375 -3.800781 9.234375 -3.0625 C 9.234375 -2.082031 8.898438 -1.328125 8.234375 -0.796875 C 7.566406 -0.265625 6.617188 0 5.390625 0 L 1.46875 0 Z M 1.46875 -10.9375 "/>
</symbol>
<symbol overflow="visible" id="glyph0-4">
<path style="stroke:none;" d="M 6.171875 -6.9375 C 6.015625 -7.03125 5.847656 -7.097656 5.671875 -7.140625 C 5.492188 -7.179688 5.296875 -7.203125 5.078125 -7.203125 C 4.316406 -7.203125 3.734375 -6.953125 3.328125 -6.453125 C 2.921875 -5.960938 2.71875 -5.253906 2.71875 -4.328125 L 2.71875 0 L 1.359375 0 L 1.359375 -8.203125 L 2.71875 -8.203125 L 2.71875 -6.921875 C 3 -7.421875 3.363281 -7.789062 3.8125 -8.03125 C 4.269531 -8.28125 4.828125 -8.40625 5.484375 -8.40625 C 5.578125 -8.40625 5.675781 -8.394531 5.78125 -8.375 C 5.894531 -8.363281 6.019531 -8.347656 6.15625 -8.328125 Z M 6.171875 -6.9375 "/>
</symbol>
<symbol overflow="visible" id="glyph0-5">
<path style="stroke:none;" d="M 1.46875 -10.9375 L 7.75 -10.9375 L 7.75 -9.6875 L 2.953125 -9.6875 L 2.953125 -6.46875 L 7.28125 -6.46875 L 7.28125 -5.21875 L 2.953125 -5.21875 L 2.953125 0 L 1.46875 0 Z M 1.46875 -10.9375 "/>
</symbol>
</g>
</defs>
<g id="surface51429">
<rect x="0" y="0" width="300" height="300" style="fill:rgb(100%,100%,100%);fill-opacity:1;stroke:none;"/>
<path style="fill:none;stroke-width:1.2;stroke-linecap:butt;stroke-linejoin:miter;stroke:rgb(0%,0%,0%);stroke-opacity:1;stroke-miterlimit:10;" d="M 264.75 164.945312 L 248.230469 158.691406 "/>
<path style="fill:none;stroke-width:1.2;stroke-linecap:butt;stroke-linejoin:miter;stroke:rgb(80%,80%,0%);stroke-opacity:1;stroke-miterlimit:10;" d="M 248.230469 158.691406 L 231.714844 152.4375 "/>
<path style="fill:none;stroke-width:1.2;stroke-linecap:butt;stroke-linejoin:miter;stroke:rgb(80%,80%,0%);stroke-opacity:1;stroke-miterlimit:10;" d="M 235.601562 153.910156 L 241.855469 137.390625 "/>
<path style="fill:none;stroke-width:1.2;stroke-linecap:butt;stroke-linejoin:miter;stroke:rgb(100%,0%,0%);stroke-opacity:1;stroke-miterlimit:10;" d="M 241.855469 137.390625 L 248.109375 120.871094 "/>
<path style="fill:none;stroke-width:1.2;stroke-linecap:butt;stroke-linejoin:miter;stroke:rgb(80%,80%,0%);stroke-opacity:1;stroke-miterlimit:10;" d="M 227.828125 150.964844 L 234.082031 134.445312 "/>
<path style="fill:none;stroke-width:1.2;stroke-linecap:butt;stroke-linejoin:miter;stroke:rgb(100%,0%,0%);stroke-opacity:1;stroke-miterlimit:10;" d="M 234.082031 134.445312 L 240.335938 117.929688 "/>
<path style="fill:none;stroke-width:1.2;stroke-linecap:butt;stroke-linejoin:miter;stroke:rgb(80%,80%,0%);stroke-opacity:1;stroke-miterlimit:10;" d="M 227.828125 150.964844 L 221.570312 167.484375 "/>
<path style="fill:none;stroke-width:1.2;stroke-linecap:butt;stroke-linejoin:miter;stroke:rgb(100%,0%,0%);stroke-opacity:1;stroke-miterlimit:10;" d="M 221.570312 167.484375 L 215.316406 184 "/>
<path style="fill:none;stroke-width:1.2;stroke-linecap:butt;stroke-linejoin:miter;stroke:rgb(80%,80%,0%);stroke-opacity:1;stroke-miterlimit:10;" d="M 235.601562 153.910156 L 229.34375 170.425781 "/>
<path style="fill:none;stroke-width:1.2;stroke-linecap:butt;stroke-linejoin:miter;stroke:rgb(100%,0%,0%);stroke-opacity:1;stroke-miterlimit:10;" d="M 229.34375 170.425781 L 223.089844 186.945312 "/>
<path style="fill:none;stroke-width:1.2;stroke-linecap:butt;stroke-linejoin:miter;stroke:rgb(80%,80%,0%);stroke-opacity:1;stroke-miterlimit:10;" d="M 231.714844 152.4375 L 215.195312 146.183594 "/>
<path style="fill:none;stroke-width:1.2;stroke-linecap:butt;stroke-linejoin:miter;stroke:rgb(0%,0%,0%);stroke-opacity:1;stroke-miterlimit:10;" d="M 215.195312 146.183594 L 198.675781 139.925781 "/>
<path style=" stroke:none;fill-rule:nonzero;fill:rgb(100%,100%,100%);fill-opacity:1;" d="M 226.714844 143.4375 L 236.714844 143.4375 L 236.714844 161.4375 L 226.714844 161.4375 Z M 226.714844 143.4375 "/>
<g style="fill:rgb(80%,80%,0%);fill-opacity:1;">
  <use xlink:href="#glyph0-1" x="226.714844" y="157.051758"/>
</g>
<path style=" stroke:none;fill-rule:nonzero;fill:rgb(100%,100%,100%);fill-opacity:1;" d="M 238.222656 110.402344 L 250.222656 110.402344 L 250.222656 128.402344 L 238.222656 128.402344 Z M 238.222656 110.402344 "/>
<g style="fill:rgb(100%,0%,0%);fill-opacity:1;">
  <use xlink:href="#glyph0-2" x="238.222656" y="124.016602"/>
</g>
<path style=" stroke:none;fill-rule:nonzero;fill:rgb(100%,100%,100%);fill-opacity:1;" d="M 207.203125 176.472656 L 219.203125 176.472656 L 219.203125 194.472656 L 207.203125 194.472656 Z M 207.203125 176.472656 "/>
<g style="fill:rgb(100%,0%,0%);fill-opacity:1;">
  <use xlink:href="#glyph0-2" x="207.203125" y="190.086914"/>
</g>
<path style="fill:none;stroke-width:1.2;stroke-linecap:butt;stroke-linejoin:miter;stroke:rgb(0%,0%,0%);stroke-opacity:1;stroke-miterlimit:10;" d="M 198.675781 139.925781 L 171.324219 162.28125 "/>
<path style="fill:none;stroke-width:1.2;stroke-linecap:butt;stroke-linejoin:miter;stroke:rgb(0%,0%,0%);stroke-opacity:1;stroke-miterlimit:10;" d="M 190.683594 135.726562 L 168.800781 153.609375 "/>
<path style="fill:none;stroke-width:1.2;stroke-linecap:butt;stroke-linejoin:miter;stroke:rgb(0%,0%,0%);stroke-opacity:1;stroke-miterlimit:10;" d="M 192.992188 105.0625 L 198.675781 139.925781 "/>
<path style="fill:none;stroke-width:1.2;stroke-linecap:butt;stroke-linejoin:miter;stroke:rgb(0%,0%,0%);stroke-opacity:1;stroke-miterlimit:10;" d="M 171.324219 162.28125 L 138.289062 149.773438 "/>
<path style="fill:none;stroke-width:1.2;stroke-linecap:butt;stroke-linejoin:miter;stroke:rgb(0%,0%,0%);stroke-opacity:1;stroke-miterlimit:10;" d="M 138.289062 149.773438 L 132.605469 114.90625 "/>
<path style="fill:none;stroke-width:1.2;stroke-linecap:butt;stroke-linejoin:miter;stroke:rgb(0%,0%,0%);stroke-opacity:1;stroke-miterlimit:10;" d="M 145.925781 144.949219 L 141.378906 117.054688 "/>
<path style="fill:none;stroke-width:1.2;stroke-linecap:butt;stroke-linejoin:miter;stroke:rgb(0%,0%,0%);stroke-opacity:1;stroke-miterlimit:10;" d="M 132.605469 114.90625 L 159.957031 92.550781 "/>
<path style="fill:none;stroke-width:1.2;stroke-linecap:butt;stroke-linejoin:miter;stroke:rgb(0%,0%,0%);stroke-opacity:1;stroke-miterlimit:10;" d="M 132.605469 114.90625 L 99.570312 102.398438 "/>
<path style="fill:none;stroke-width:1.2;stroke-linecap:butt;stroke-linejoin:miter;stroke:rgb(0%,0%,0%);stroke-opacity:1;stroke-miterlimit:10;" d="M 159.957031 92.550781 L 192.992188 105.0625 "/>
<path style="fill:none;stroke-width:1.2;stroke-linecap:butt;stroke-linejoin:miter;stroke:rgb(0%,0%,0%);stroke-opacity:1;stroke-miterlimit:10;" d="M 160.316406 101.574219 L 186.746094 111.582031 "/>
<path style="fill:none;stroke-width:1.2;stroke-linecap:butt;stroke-linejoin:miter;stroke:rgb(0%,0%,0%);stroke-opacity:1;stroke-miterlimit:10;" d="M 99.570312 102.398438 L 70.03125 121.769531 "/>
<path style="fill:none;stroke-width:1.2;stroke-linecap:butt;stroke-linejoin:miter;stroke:rgb(0%,0%,0%);stroke-opacity:1;stroke-miterlimit:10;" d="M 92.054688 97.382812 L 68.425781 112.882812 "/>
<path style="fill:none;stroke-width:1.2;stroke-linecap:butt;stroke-linejoin:miter;stroke:rgb(0%,0%,0%);stroke-opacity:1;stroke-miterlimit:10;" d="M 90.273438 68.316406 L 99.570312 102.398438 "/>
<path style="fill:none;stroke-width:1.2;stroke-linecap:butt;stroke-linejoin:miter;stroke:rgb(0%,0%,0%);stroke-opacity:1;stroke-miterlimit:10;" d="M 70.03125 121.769531 L 56.253906 110.71875 "/>
<path style="fill:none;stroke-width:1.2;stroke-linecap:butt;stroke-linejoin:miter;stroke:rgb(80%,80%,0%);stroke-opacity:1;stroke-miterlimit:10;" d="M 56.253906 110.71875 L 42.476562 99.664062 "/>
<path style="fill:none;stroke-width:1.2;stroke-linecap:butt;stroke-linejoin:miter;stroke:rgb(0%,0%,0%);stroke-opacity:1;stroke-miterlimit:10;" d="M 70.03125 121.769531 L 68.339844 157.054688 "/>
<path style="fill:none;stroke-width:1.2;stroke-linecap:butt;stroke-linejoin:miter;stroke:rgb(80%,80%,0%);stroke-opacity:1;stroke-miterlimit:10;" d="M 42.476562 99.664062 L 48.730469 83.144531 "/>
<path style="fill:none;stroke-width:1.2;stroke-linecap:butt;stroke-linejoin:miter;stroke:rgb(0%,0%,0%);stroke-opacity:1;stroke-miterlimit:10;" d="M 48.730469 83.144531 L 54.988281 66.628906 "/>
<path style=" stroke:none;fill-rule:nonzero;fill:rgb(100%,100%,100%);fill-opacity:1;" d="M 37.476562 90.664062 L 47.476562 90.664062 L 47.476562 108.664062 L 37.476562 108.664062 Z M 37.476562 90.664062 "/>
<g style="fill:rgb(80%,80%,0%);fill-opacity:1;">
  <use xlink:href="#glyph0-1" x="37.476562" y="104.27832"/>
</g>
<path style="fill:none;stroke-width:1.2;stroke-linecap:butt;stroke-linejoin:miter;stroke:rgb(0%,0%,0%);stroke-opacity:1;stroke-miterlimit:10;" d="M 54.988281 66.628906 L 90.273438 68.316406 "/>
<path style="fill:none;stroke-width:1.2;stroke-linecap:butt;stroke-linejoin:miter;stroke:rgb(0%,0%,0%);stroke-opacity:1;stroke-miterlimit:10;" d="M 58.117188 75.097656 L 86.34375 76.449219 "/>
<path style="fill:none;stroke-width:1.2;stroke-linecap:butt;stroke-linejoin:miter;stroke:rgb(0%,0%,0%);stroke-opacity:1;stroke-miterlimit:10;" d="M 54.988281 66.628906 L 45.300781 51.859375 "/>
<path style="fill:none;stroke-width:1.2;stroke-linecap:butt;stroke-linejoin:miter;stroke:rgb(50%,30%,10%);stroke-opacity:1;stroke-miterlimit:10;" d="M 45.300781 51.859375 L 35.613281 37.089844 "/>
<path style=" stroke:none;fill-rule:nonzero;fill:rgb(100%,100%,100%);fill-opacity:1;" d="M 18.613281 28.089844 L 35.613281 28.089844 L 35.613281 46.089844 L 18.613281 46.089844 Z M 18.613281 28.089844 "/>
<g style="fill:rgb(50%,30%,10%);fill-opacity:1;">
  <use xlink:href="#glyph0-3" x="18.613281" y="41.704102"/>
  <use xlink:href="#glyph0-4" x="28.678711" y="41.704102"/>
</g>
<path style="fill:none;stroke-width:1.2;stroke-linecap:butt;stroke-linejoin:miter;stroke:rgb(0%,0%,0%);stroke-opacity:1;stroke-miterlimit:10;" d="M 68.339844 157.054688 L 36.9375 173.234375 "/>
<path style="fill:none;stroke-width:1.2;stroke-linecap:butt;stroke-linejoin:miter;stroke:rgb(0%,0%,0%);stroke-opacity:1;stroke-miterlimit:10;" d="M 69.007812 166.0625 L 43.886719 179.007812 "/>
<path style="fill:none;stroke-width:1.2;stroke-linecap:butt;stroke-linejoin:miter;stroke:rgb(0%,0%,0%);stroke-opacity:1;stroke-miterlimit:10;" d="M 98.054688 176.160156 L 68.339844 157.054688 "/>
<path style="fill:none;stroke-width:1.2;stroke-linecap:butt;stroke-linejoin:miter;stroke:rgb(0%,0%,0%);stroke-opacity:1;stroke-miterlimit:10;" d="M 36.9375 173.234375 L 35.25 208.519531 "/>
<path style="fill:none;stroke-width:1.2;stroke-linecap:butt;stroke-linejoin:miter;stroke:rgb(0%,0%,0%);stroke-opacity:1;stroke-miterlimit:10;" d="M 35.25 208.519531 L 64.964844 227.625 "/>
<path style="fill:none;stroke-width:1.2;stroke-linecap:butt;stroke-linejoin:miter;stroke:rgb(0%,0%,0%);stroke-opacity:1;stroke-miterlimit:10;" d="M 42.714844 203.441406 L 66.488281 218.722656 "/>
<path style="fill:none;stroke-width:1.2;stroke-linecap:butt;stroke-linejoin:miter;stroke:rgb(0%,0%,0%);stroke-opacity:1;stroke-miterlimit:10;" d="M 64.964844 227.625 L 96.367188 211.445312 "/>
<path style="fill:none;stroke-width:1.2;stroke-linecap:butt;stroke-linejoin:miter;stroke:rgb(0%,0%,0%);stroke-opacity:1;stroke-miterlimit:10;" d="M 64.964844 227.625 L 64.117188 245.269531 "/>
<path style="fill:none;stroke-width:1.2;stroke-linecap:butt;stroke-linejoin:miter;stroke:rgb(20%,80%,80%);stroke-opacity:1;stroke-miterlimit:10;" d="M 64.117188 245.269531 L 63.273438 262.910156 "/>
<path style="fill:none;stroke-width:1.2;stroke-linecap:butt;stroke-linejoin:miter;stroke:rgb(0%,0%,0%);stroke-opacity:1;stroke-miterlimit:10;" d="M 96.367188 211.445312 L 98.054688 176.160156 "/>
<path style="fill:none;stroke-width:1.2;stroke-linecap:butt;stroke-linejoin:miter;stroke:rgb(0%,0%,0%);stroke-opacity:1;stroke-miterlimit:10;" d="M 88.230469 207.519531 L 89.582031 179.292969 "/>
<path style=" stroke:none;fill-rule:nonzero;fill:rgb(100%,100%,100%);fill-opacity:1;" d="M 59.273438 253.910156 L 68.273438 253.910156 L 68.273438 271.910156 L 59.273438 271.910156 Z M 59.273438 253.910156 "/>
<g style="fill:rgb(20%,80%,80%);fill-opacity:1;">
  <use xlink:href="#glyph0-5" x="59.273438" y="267.524414"/>
</g>
</g>
</svg>

<svg xmlns="http://www.w3.org/2000/svg" xmlns:xlink="http://www.w3.org/1999/xlink" width="300pt" height="300pt" viewBox="0 0 300 300"><defs><symbol overflow="visible"><path d="M.75 2.656v-13.234h7.5V2.656zm.844-.844h5.812V-9.733H1.594zm0 0"/></symbol><symbol overflow="visible" id="a"><path d="M8.03-10.578v1.437C7.47-9.4 6.94-9.6 6.44-9.735c-.5-.133-.98-.204-1.438-.204-.813 0-1.438.157-1.875.47-.438.312-.656.76-.656 1.343 0 .48.143.844.436 1.094.29.24.844.436 1.656.593l.89.187c1.103.21 1.915.578 2.44 1.11.53.53.795 1.242.795 2.124 0 1.063-.355 1.87-1.062 2.422C6.915-.05 5.875.22 4.5.22 3.977.22 3.426.155 2.844.03 2.258-.08 1.656-.253 1.03-.483V-2c.603.336 1.193.59 1.767.766.57.168 1.14.25 1.703.25.844 0 1.492-.164 1.953-.5.457-.332.688-.805.688-1.422 0-.54-.167-.96-.5-1.266-.324-.3-.86-.523-1.61-.672l-.905-.187C3.02-5.25 2.22-5.595 1.72-6.063 1.226-6.532.983-7.18.983-8.017c0-.968.336-1.726 1.016-2.28.688-.563 1.63-.845 2.828-.845.508 0 1.03.046 1.563.14.532.094 1.08.234 1.64.422zm0 0"/></symbol><symbol overflow="visible" id="b"><path d="M5.906-9.938c-1.074 0-1.93.403-2.562 1.204-.625.804-.938 1.898-.938 3.28 0 1.376.313 2.466.938 3.266.633.805 1.488 1.204 2.562 1.204 1.07 0 1.922-.4 2.547-1.204.633-.8.953-1.89.953-3.265 0-1.383-.32-2.477-.953-3.28-.625-.802-1.476-1.204-2.547-1.204zm0-1.203c1.532 0 2.754.515 3.672 1.546.926 1.03 1.39 2.414 1.39 4.14 0 1.72-.464 3.095-1.39 4.126C8.66-.298 7.438.22 5.906.22c-1.53 0-2.76-.51-3.687-1.532C1.3-2.345.843-3.723.843-5.452c0-1.728.457-3.11 1.375-4.142.925-1.03 2.155-1.547 3.686-1.547zm0 0"/></symbol><symbol overflow="visible" id="c"><path d="M2.953-5.22v4h2.375c.79 0 1.38-.16 1.766-.483.383-.332.578-.836.578-1.516 0-.686-.195-1.19-.578-1.514-.387-.32-.977-.485-1.766-.485zm0-4.5v3.298H5.14c.72 0 1.255-.133 1.61-.406.352-.27.53-.688.53-1.25 0-.55-.178-.96-.53-1.235-.355-.27-.89-.406-1.61-.406zM1.47-10.936h3.78c1.125 0 1.992.234 2.61.703.613.468.92 1.136.92 2 0 .668-.155 1.2-.467 1.593-.313.398-.778.648-1.39.75.725.156 1.296.484 1.702.984.406.492.61 1.105.61 1.843 0 .98-.337 1.735-1 2.266C7.564-.267 6.616 0 5.39 0H1.47zm0 0"/></symbol><symbol overflow="visible" id="d"><path d="M6.172-6.938c-.156-.093-.324-.16-.5-.203-.18-.04-.375-.063-.594-.063-.762 0-1.344.25-1.75.75-.406.492-.61 1.2-.61 2.125V0H1.36v-8.203h1.36v1.28c.282-.5.645-.866 1.095-1.108.457-.25 1.015-.376 1.67-.376.095 0 .193.01.298.03.115.013.24.028.376.048zm0 0"/></symbol><symbol overflow="visible" id="e"><path d="M1.47-10.938h6.28v1.25H2.953v3.22H7.28v1.25H2.954V0H1.47zm0 0"/></symbol></defs><g><path fill="#fff" d="M0 0h300v300H0z"/><path d="M264.75 164.945l-16.52-6.254" stroke-width="1.2" stroke="#000" stroke-miterlimit="10" fill="none"/><path d="M248.23 158.69l-16.515-6.252M235.602 153.91l6.253-16.52" stroke-width="1.2" stroke="#cc0" stroke-miterlimit="10" fill="none"/><path d="M241.855 137.39l6.254-16.52" stroke-width="1.2" stroke="#f00" stroke-miterlimit="10" fill="none"/><path d="M227.828 150.965l6.254-16.52" stroke-width="1.2" stroke="#cc0" stroke-miterlimit="10" fill="none"/><path d="M234.082 134.445l6.254-16.515" stroke-width="1.2" stroke="#f00" stroke-miterlimit="10" fill="none"/><path d="M227.828 150.965l-6.258 16.52" stroke-width="1.2" stroke="#cc0" stroke-miterlimit="10" fill="none"/><path d="M221.57 167.484L215.316 184" stroke-width="1.2" stroke="#f00" stroke-miterlimit="10" fill="none"/><path d="M235.602 153.91l-6.258 16.516" stroke-width="1.2" stroke="#cc0" stroke-miterlimit="10" fill="none"/><path d="M229.344 170.426l-6.254 16.52" stroke-width="1.2" stroke="#f00" stroke-miterlimit="10" fill="none"/><path d="M231.715 152.438l-16.52-6.254" stroke-width="1.2" stroke="#cc0" stroke-miterlimit="10" fill="none"/><path d="M215.195 146.184l-16.52-6.258" stroke-width="1.2" stroke="#000" stroke-miterlimit="10" fill="none"/><path d="M226.715 143.438h10v18h-10zm0 0" fill="#fff"/><use xlink:href="#a" x="226.715" y="157.052" fill="#cc0"/><path d="M238.223 110.402h12v18h-12zm0 0" fill="#fff"/><use xlink:href="#b" x="238.223" y="124.017" fill="#f00"/><path d="M207.203 176.473h12v18h-12zm0 0" fill="#fff"/><use xlink:href="#b" x="207.203" y="190.087" fill="#f00"/><path d="M198.676 139.926l-27.352 22.355M190.684 135.727L168.8 153.61M192.992 105.063l5.684 34.863M171.324 162.28l-33.035-12.507M138.29 149.773l-5.685-34.867M145.926 144.95l-4.547-27.895M132.605 114.906l27.352-22.355M132.605 114.906L99.57 102.398M159.957 92.55l33.035 12.513M160.316 101.574l26.43 10.008M99.57 102.398L70.03 121.77M92.055 97.383l-23.63 15.5M90.273 68.316l9.297 34.082M70.03 121.77l-13.776-11.05" stroke-width="1.2" stroke="#000" stroke-miterlimit="10" fill="none"/><path d="M56.254 110.72L42.477 99.663" stroke-width="1.2" stroke="#cc0" stroke-miterlimit="10" fill="none"/><path d="M70.03 121.77l-1.69 35.285" stroke-width="1.2" stroke="#000" stroke-miterlimit="10" fill="none"/><path d="M42.477 99.664l6.253-16.52" stroke-width="1.2" stroke="#cc0" stroke-miterlimit="10" fill="none"/><path d="M48.73 83.145l6.258-16.516" stroke-width="1.2" stroke="#000" stroke-miterlimit="10" fill="none"/><path d="M37.477 90.664h10v18h-10zm0 0" fill="#fff"/><use xlink:href="#a" x="37.477" y="104.278" fill="#cc0"/><path d="M54.988 66.63l35.285 1.686M58.117 75.098l28.227 1.35M54.988 66.63L45.3 51.86" stroke-width="1.2" stroke="#000" stroke-miterlimit="10" fill="none"/><path d="M45.3 51.86l-9.687-14.77" stroke-width="1.2" stroke="#7f4d1a" stroke-miterlimit="10" fill="none"/><path d="M18.613 28.09h17v18h-17zm0 0" fill="#fff"/><g fill="#7f4d1a"><use xlink:href="#c" x="18.613" y="41.704"/><use xlink:href="#d" x="28.679" y="41.704"/></g><path d="M68.34 157.055l-31.403 16.18M69.008 166.063l-25.12 12.945M98.055 176.16L68.34 157.055M36.938 173.234L35.25 208.52M35.25 208.52l29.715 19.105M42.715 203.44l23.773 15.283M64.965 227.625l31.402-16.18M64.965 227.625l-.848 17.645" stroke-width="1.2" stroke="#000" stroke-miterlimit="10" fill="none"/><path d="M64.117 245.27l-.844 17.64" stroke-width="1.2" stroke="#3cc" stroke-miterlimit="10" fill="none"/><path d="M96.367 211.445l1.688-35.285M88.23 207.52l1.352-28.227" stroke-width="1.2" stroke="#000" stroke-miterlimit="10" fill="none"/><path d="M59.273 253.91h9v18h-9zm0 0" fill="#fff"/><use xlink:href="#e" x="59.273" y="267.524" fill="#3cc"/></g></svg>
